X: 99
T: No_194_Friendly_Song_(c).krn
N: Derived from No_194_Friendly_Song_(c).krn
%%abc-version 2.0
%%abcx-abcm2ps-target-version 5.9.1 (29 Sep 2008)
%%abc-creator hum2abc beta
%%abcx-conversion-date 2019/03/15 08:29:13
%%humdrum-veritas 2732706758
%%humdrum-veritas-data 185394124
%%linebreak <none>
%%barnumbers 0
L: 1/8
M: 4/4
K: G clef=bass
[K:clef=bass][M:4/4]D3/D/DB,/B,/ DDB,B, | 
D3/D/DB,/B,/ DDB,B, | 
G,3/G,/G,G,/G,/ E,E,D,D, | 
G,3/G,/G,G,/G,/ B,/G,3/ D,/D,D,/ | 
D,3D, E,D,C,2 ||  
[M:5/4]D,/D,3/-D,D,E,D, B,,/B,,3/B,,3/A,,/ | 
G,,/G,,3/G,,4-G,,4 ||  
[M:4/4]G,G,G,3/G,/ B,/G,3/E,2 | 
G,/G,3/G,G,/G,/ B,/G,3/E,3/D,/ | 
D,3D, E,D,C,2 ||  
[M:5/4]D,/D,3/D,3/D,/E,D, B,,3/D,/B,,A,, | 
G,,/G,,3/G,,4-G,,4 |]  



